X: 02110
T: RAT IN THE GARRET
C: Bob McQuillen Dec'74
B: Bob's Note Book 1&2 #110
%R: jig
Z: 2019 John Chambers <jc:trillian.mit.edu>
M: 6/8
L: 1/8
K: D
A \
|  def dBA | def dBA | dfa agf | gfg ecA |\
[1 def dBA | def dBA | dfa agf | edc d2 :|
[2 def dBA | dfa a2g | fga agf | edc d2 ||\
|| c \
|: Bcd cdc | Bcd cBA | Bcd cde | fgf edc |
[1 Bcd cdc | Bcd cde | fgf edc | dBB B2F :|\
[2 Bcd cdc | Bff f2e | dBB cBA | FBB B2 |]
%%begintext align
%% With apologies to the
%% "MOUSE IN THE CUPBOARD".
%%endtext

%%sep 1 1 500

%%sep 1 1 500

